;FLAVOR:Marlin
;TIME:560
;Filament used: 0.233268m
;Layer height: 0.2
;MINX:94
;MINY:94
;MINZ:0.2
;MAXX:126
;MAXY:126
;MAXZ:10
;Generated with Cura_SteamEngine 4.10.0
M140 S60
M105
M190 S60
M104 S200
M105
M109 S200
M82 ;absolute extrusion mode
; Ender 3 Custom Start G-code
G92 E0 ; Reset Extruder
G28 ; Home all axes
G1 Z2.0 F3000 ; Move Z Axis up little to prevent scratching of Heat Bed
G1 X0.1 Y20 Z0.3 F5000.0 ; Move to start position
G1 X0.1 Y200.0 Z0.3 F1500.0 E15 ; Draw the first line
G1 X0.4 Y200.0 Z0.3 F5000.0 ; Move to side a little
G1 X0.4 Y20 Z0.3 F1500.0 E30 ; Draw the second line
G92 E0 ; Reset Extruder
G1 Z2.0 F3000 ; Move Z Axis up little to prevent scratching of Heat Bed
G1 X5 Y20 Z0.3 F5000.0 ; Move over to prevent blob squish
G92 E0
G92 E0
G1 F1500 E-6.5
;LAYER_COUNT:50
;LAYER:0
M107
G0 F6000 X97.198 Y97.264 Z0.2
;TYPE:SKIRT
G1 F1500 E0
G1 F1200 X97.886 Y96.627 E0.03119
G1 X98.626 Y96.051 E0.06237
G1 X99.412 Y95.539 E0.09357
G1 X100.239 Y95.097 E0.12476
G1 X101.101 Y94.727 E0.15596
G1 X101.991 Y94.431 E0.18716
G1 X102.903 Y94.213 E0.21835
G1 X103.83 Y94.072 E0.24953
G1 X104.701 Y94.013 E0.27857
G1 X105.022 Y94.004 E0.28925
G1 X105.33 Y94 E0.29949
G1 X114.293 Y94 E0.59761
G1 X115.149 Y94.011 E0.62608
G1 X116.085 Y94.065 E0.65726
G1 X117.013 Y94.197 E0.68844
G1 X117.927 Y94.409 E0.71964
G1 X118.819 Y94.698 E0.75083
G1 X119.684 Y95.061 E0.78203
G1 X120.514 Y95.497 E0.81321
G1 X121.305 Y96.002 E0.84443
G1 X122.049 Y96.573 E0.87562
G1 X122.742 Y97.205 E0.90682
G1 X123.379 Y97.893 E0.938
G1 X123.954 Y98.634 E0.9692
G1 X124.465 Y99.42 E1.00038
G1 X124.907 Y100.248 E1.0316
G1 X125.276 Y101.11 E1.06278
G1 X125.571 Y102 E1.09397
G1 X125.789 Y102.912 E1.12516
G1 X125.929 Y103.84 E1.15637
G1 X125.987 Y104.701 E1.18507
G1 X125.996 Y105.021 E1.19572
G1 X126 Y105.33 E1.206
G1 X125.999 Y114.4 E1.50767
G1 X125.99 Y115.127 E1.53185
G1 X125.939 Y116.064 E1.56306
G1 X125.807 Y116.992 E1.59424
G1 X125.598 Y117.906 E1.62542
G1 X125.311 Y118.799 E1.65662
G1 X124.949 Y119.665 E1.68784
G1 X124.515 Y120.496 E1.71902
G1 X124.011 Y121.287 E1.75021
G1 X123.442 Y122.032 E1.78139
G1 X122.811 Y122.727 E1.81261
G1 X122.124 Y123.365 E1.8438
G1 X121.385 Y123.942 E1.87498
G1 X120.599 Y124.454 E1.90618
G1 X119.773 Y124.897 E1.93736
G1 X118.911 Y125.269 E1.96858
G1 X118.022 Y125.565 E1.99975
G1 X117.11 Y125.785 E2.03095
G1 X116.183 Y125.926 E2.06214
G1 X115.299 Y125.987 E2.09161
G1 X114.978 Y125.996 E2.10229
G1 X114.67 Y126 E2.11253
G1 X105.565 Y125.999 E2.41537
G1 X104.867 Y125.99 E2.43858
G1 X103.931 Y125.938 E2.46976
G1 X103.002 Y125.806 E2.50097
G1 X102.088 Y125.596 E2.53216
G1 X101.195 Y125.309 E2.56336
G1 X100.33 Y124.946 E2.59456
G1 X99.499 Y124.512 E2.62574
G1 X98.708 Y124.008 E2.65694
G1 X97.963 Y123.438 E2.68814
G1 X97.269 Y122.807 E2.71934
G1 X96.632 Y122.12 E2.7505
G1 X96.055 Y121.38 E2.78171
G1 X95.543 Y120.594 E2.81291
G1 X95.1 Y119.767 E2.84411
G1 X94.729 Y118.906 E2.87529
G1 X94.433 Y118.016 E2.90649
G1 X94.214 Y117.104 E2.93768
G1 X94.073 Y116.177 E2.96887
G1 X94.013 Y115.288 E2.99851
G1 X94.004 Y114.955 E3.00959
G1 X94 Y114.658 E3.01947
G1 X94.001 Y105.525 E3.32323
G1 X94.01 Y104.86 E3.34535
G1 X94.063 Y103.924 E3.37653
G1 X94.195 Y102.995 E3.40774
G1 X94.406 Y102.081 E3.43894
G1 X94.694 Y101.189 E3.47012
G1 X95.057 Y100.324 E3.50132
G1 X95.492 Y99.493 E3.53251
G1 X95.996 Y98.703 E3.56368
G1 X96.566 Y97.958 E3.59488
G1 X97.198 Y97.264 E3.6261
G0 F6000 X97.589 Y97.439
G1 F1200 X98.274 Y96.823 E3.65674
G1 X99.01 Y96.27 E3.68736
G1 X99.791 Y95.782 E3.71799
G1 X100.611 Y95.364 E3.7486
G1 X101.465 Y95.019 E3.77924
G1 X102.345 Y94.749 E3.80985
G1 X103.245 Y94.557 E3.84046
G1 X104.159 Y94.443 E3.8711
G1 X104.712 Y94.413 E3.88952
G1 X105.033 Y94.404 E3.9002
G1 X105.33 Y94.4 E3.91008
G1 X114.293 Y94.4 E4.20819
G1 X115.143 Y94.411 E4.23646
G1 X116.062 Y94.464 E4.26708
G1 X116.973 Y94.597 E4.2977
G1 X117.869 Y94.808 E4.32831
G1 X118.743 Y95.096 E4.35892
G1 X119.59 Y95.459 E4.38957
G1 X120.401 Y95.894 E4.42018
G1 X121.171 Y96.398 E4.45079
G1 X121.895 Y96.967 E4.48142
G1 X122.567 Y97.597 E4.51205
G1 X123.182 Y98.282 E4.54267
G1 X123.735 Y99.018 E4.57329
G1 X124.222 Y99.799 E4.6039
G1 X124.639 Y100.62 E4.63453
G1 X124.984 Y101.474 E4.66516
G1 X125.253 Y102.354 E4.69577
G1 X125.445 Y103.255 E4.72641
G1 X125.558 Y104.168 E4.75701
G1 X125.587 Y104.712 E4.77513
G1 X125.596 Y105.032 E4.78577
G1 X125.6 Y105.33 E4.79569
G1 X125.599 Y114.395 E5.09719
G1 X125.59 Y115.122 E5.12137
G1 X125.539 Y116.041 E5.15199
G1 X125.408 Y116.953 E5.18263
G1 X125.198 Y117.849 E5.21324
G1 X124.912 Y118.724 E5.24386
G1 X124.551 Y119.571 E5.27448
G1 X124.117 Y120.383 E5.3051
G1 X123.615 Y121.155 E5.33573
G1 X123.047 Y121.88 E5.36636
G1 X122.419 Y122.553 E5.39698
G1 X121.735 Y123.169 E5.42759
G1 X121 Y123.723 E5.45821
G1 X120.22 Y124.212 E5.48883
G1 X119.4 Y124.631 E5.51945
G1 X118.547 Y124.977 E5.55007
G1 X117.667 Y125.248 E5.5807
G1 X116.767 Y125.441 E5.61131
G1 X115.853 Y125.556 E5.64195
G1 X115.288 Y125.587 E5.66077
G1 X114.967 Y125.596 E5.67145
G1 X114.67 Y125.6 E5.68133
G1 X105.57 Y125.599 E5.984
G1 X104.872 Y125.59 E6.00722
G1 X103.953 Y125.538 E6.03783
G1 X103.042 Y125.407 E6.06844
G1 X102.146 Y125.197 E6.09905
G1 X101.271 Y124.91 E6.12968
G1 X100.424 Y124.548 E6.16031
G1 X99.612 Y124.114 E6.19094
G1 X98.841 Y123.612 E6.22154
G1 X98.116 Y123.044 E6.25217
G1 X97.443 Y122.415 E6.28281
G1 X96.828 Y121.731 E6.3134
G1 X96.274 Y120.996 E6.34402
G1 X95.786 Y120.215 E6.37465
G1 X95.367 Y119.395 E6.40527
G1 X95.021 Y118.542 E6.43589
G1 X94.751 Y117.662 E6.4665
G1 X94.558 Y116.761 E6.49715
G1 X94.444 Y115.848 E6.52775
G1 X94.413 Y115.277 E6.54677
G1 X94.404 Y114.944 E6.55785
G1 X94.4 Y114.658 E6.56737
G1 X94.401 Y105.531 E6.87093
G1 X94.41 Y104.866 E6.89305
G1 X94.462 Y103.946 E6.9237
G1 X94.594 Y103.035 E6.95432
G1 X94.805 Y102.139 E6.98493
G1 X95.092 Y101.264 E7.01556
G1 X95.455 Y100.418 E7.04618
G1 X95.889 Y99.606 E7.0768
G1 X96.392 Y98.835 E7.10742
G1 X96.961 Y98.111 E7.13805
G1 X97.589 Y97.439 E7.16864
G0 F6000 X97.981 Y97.617
G1 F1200 X98.662 Y97.024 E7.19867
G1 X99.394 Y96.494 E7.22873
G1 X100.169 Y96.031 E7.25876
G1 X100.982 Y95.638 E7.28879
G1 X101.827 Y95.318 E7.31884
G1 X102.696 Y95.075 E7.34886
G1 X103.584 Y94.909 E7.3789
G1 X104.723 Y94.813 E7.41692
G1 X105.044 Y94.804 E7.4276
G1 X105.33 Y94.8 E7.43711
G1 X114.293 Y94.8 E7.73523
G1 X115.137 Y94.811 E7.7633
G1 X116.039 Y94.864 E7.79335
G1 X116.932 Y94.996 E7.82338
G1 X117.81 Y95.207 E7.85341
G1 X118.666 Y95.495 E7.88345
G1 X119.493 Y95.857 E7.91347
G1 X120.285 Y96.292 E7.94353
G1 X121.036 Y96.794 E7.97357
G1 X121.739 Y97.361 E8.00361
G1 X122.389 Y97.988 E8.03365
G1 X122.981 Y98.67 E8.06369
G1 X123.511 Y99.401 E8.09372
G1 X123.973 Y100.177 E8.12376
G1 X124.366 Y100.99 E8.15379
G1 X124.684 Y101.835 E8.18382
G1 X124.927 Y102.705 E8.21386
G1 X125.092 Y103.593 E8.2439
G1 X125.187 Y104.723 E8.28162
G1 X125.196 Y105.043 E8.29227
G1 X125.2 Y105.33 E8.30181
G1 X125.199 Y114.39 E8.60315
G1 X125.19 Y115.117 E8.62733
G1 X125.139 Y116.019 E8.65738
G1 X125.008 Y116.913 E8.68743
G1 X124.799 Y117.791 E8.71745
G1 X124.513 Y118.648 E8.7475
G1 X124.152 Y119.476 E8.77754
G1 X123.72 Y120.268 E8.80755
G1 X123.219 Y121.02 E8.8376
G1 X122.653 Y121.724 E8.86765
G1 X122.028 Y122.375 E8.89766
G1 X121.347 Y122.969 E8.92772
G1 X120.616 Y123.5 E8.95777
G1 X119.842 Y123.964 E8.98779
G1 X119.029 Y124.358 E9.01783
G1 X118.185 Y124.678 E9.04786
G1 X117.315 Y124.923 E9.07792
G1 X116.428 Y125.089 E9.10793
G1 X115.277 Y125.187 E9.14635
G1 X114.956 Y125.196 E9.15703
G1 X114.67 Y125.2 E9.16655
G1 X105.575 Y125.199 E9.46905
G1 X104.877 Y125.19 E9.49226
G1 X103.976 Y125.139 E9.52228
G1 X103.082 Y125.007 E9.55234
G1 X102.204 Y124.798 E9.58236
G1 X101.347 Y124.511 E9.61242
G1 X100.52 Y124.15 E9.64243
G1 X99.727 Y123.717 E9.67248
G1 X98.976 Y123.216 E9.70251
G1 X98.272 Y122.65 E9.73255
G1 X97.621 Y122.024 E9.76259
G1 X97.028 Y121.343 E9.79262
G1 X96.498 Y120.612 E9.82265
G1 X96.034 Y119.837 E9.8527
G1 X95.64 Y119.024 E9.88275
G1 X95.32 Y118.18 E9.91277
G1 X95.076 Y117.31 E9.94282
G1 X94.91 Y116.422 E9.97287
G1 X94.813 Y115.267 E10.01142
G1 X94.804 Y114.934 E10.0225
G1 X94.8 Y114.658 E10.03168
G1 X94.801 Y105.536 E10.33508
G1 X94.81 Y104.871 E10.3572
G1 X94.862 Y103.969 E10.38725
G1 X94.994 Y103.076 E10.41727
G1 X95.204 Y102.198 E10.4473
G1 X95.491 Y101.341 E10.47736
G1 X95.853 Y100.514 E10.50738
G1 X96.286 Y99.722 E10.5374
G1 X96.788 Y98.971 E10.56745
G1 X97.355 Y98.267 E10.59751
G1 X97.981 Y97.617 E10.62753
G1 F1500 E4.12753
;MESH:?????? ?????? (2).stl
G0 F6000 X104.588 Y104.589
G0 X105.414 Y105.414
G0 X114.218 Y105.782
G0 X114.4 Y114.4
;TYPE:WALL-INNER
G1 F1500 E10.62753
G1 F1200 X105.6 Y114.4 E10.92022
G1 X105.6 Y105.6 E11.21291
G1 X114.4 Y105.6 E11.5056
G1 X114.4 Y114.4 E11.79829
G0 F6000 X114.8 Y114.8
;TYPE:WALL-OUTER
G1 F1200 X105.2 Y114.8 E12.11758
G1 X105.2 Y105.2 E12.43688
G1 X114.8 Y105.2 E12.75618
G1 X114.8 Y114.8 E13.07548
G0 F6000 X114.53 Y114.53
G0 X114.29 Y114.01
G0 X114.01 Y114.01
;TYPE:SKIN
G1 F1200 X105.99 Y114.01 E13.34222
G1 X105.99 Y105.99 E13.60897
G1 X114.01 Y105.99 E13.87571
G1 X114.01 Y114.01 E14.14246
G0 F6000 X114.29 Y114.01
G0 X114.29 Y106.495
G0 X113.849 Y106.495
G1 F1200 X113.504 Y106.15 E14.15869
G0 F6000 X112.938 Y106.15
G1 F1200 X113.849 Y107.061 E14.20154
G0 F6000 X113.849 Y107.627
G1 F1200 X112.372 Y106.15 E14.27101
G0 F6000 X111.807 Y106.15
G1 F1200 X113.849 Y108.192 E14.36706
G0 F6000 X113.849 Y108.758
G1 F1200 X111.241 Y106.15 E14.48973
G0 F6000 X110.675 Y106.15
G1 F1200 X113.849 Y109.324 E14.63903
G0 F6000 X113.849 Y109.89
G1 F1200 X110.109 Y106.15 E14.81495
G0 F6000 X109.544 Y106.15
G1 F1200 X113.849 Y110.455 E15.01744
G0 F6000 X113.849 Y111.021
G1 F1200 X108.978 Y106.15 E15.24656
G0 F6000 X108.412 Y106.15
G1 F1200 X113.849 Y111.587 E15.5023
G0 F6000 X113.849 Y112.152
G1 F1200 X107.847 Y106.15 E15.78461
G0 F6000 X107.281 Y106.15
G1 F1200 X113.849 Y112.718 E16.09355
G0 F6000 X113.849 Y113.284
G1 F1200 X106.715 Y106.15 E16.42911
G0 F6000 X106.149 Y106.149
G1 F1200 X113.849 Y113.849 E16.7913
G0 F6000 X113.283 Y113.849
G1 F1200 X106.149 Y106.715 E17.12686
G0 F6000 X106.149 Y107.28
G1 F1200 X112.717 Y113.849 E17.43582
G0 F6000 X112.152 Y113.849
G1 F1200 X106.149 Y107.846 E17.71818
G0 F6000 X106.149 Y108.412
G1 F1200 X111.586 Y113.849 E17.97392
G0 F6000 X111.02 Y113.849
G1 F1200 X106.149 Y108.977 E18.20306
G0 F6000 X106.149 Y109.543
G1 F1200 X110.455 Y113.849 E18.40561
G0 F6000 X109.889 Y113.849
G1 F1200 X106.149 Y110.109 E18.58152
G0 F6000 X106.149 Y110.674
G1 F1200 X109.323 Y113.849 E18.73084
G0 F6000 X108.757 Y113.849
G1 F1200 X106.149 Y111.24 E18.85354
G0 F6000 X106.149 Y111.806
G1 F1200 X108.192 Y113.849 E18.94964
G0 F6000 X107.626 Y113.849
G1 F1200 X106.149 Y112.371 E19.01913
G0 F6000 X106.149 Y112.937
G1 F1200 X107.06 Y113.849 E19.06201
G0 F6000 X106.495 Y113.849
G1 F1200 X106.149 Y113.503 E19.07828
G0 F6000 X105.8 Y113.503
;MESH:NONMESH
G0 F300 X105.8 Y113.503 Z0.4
G0 F6000 X105.71 Y113.503
G0 X105.782 Y114.218
G0 X114.4 Y114.4
;TIME_ELAPSED:37.527472
;LAYER:1
M106 S85
;TYPE:WALL-INNER
;MESH:?????? ?????? (2).stl
G1 F1547 X105.6 Y114.4 E19.37097
G1 X105.6 Y105.6 E19.66366
G1 X114.4 Y105.6 E19.95635
G1 X114.4 Y114.4 E20.24904
G0 F10500 X114.8 Y114.8
;TYPE:WALL-OUTER
G1 F1547 X105.2 Y114.8 E20.56834
G1 X105.2 Y105.2 E20.88763
G1 X114.8 Y105.2 E21.20693
G1 X114.8 Y114.8 E21.52623
G0 F10500 X114.53 Y114.53
G0 X114.29 Y114.01
G0 X114.01 Y114.01
;TYPE:SKIN
G1 F1547 X105.99 Y114.01 E21.79297
G1 X105.99 Y105.99 E22.05972
G1 X114.01 Y105.99 E22.32647
G1 X114.01 Y114.01 E22.59321
G0 F10500 X113.849 Y113.556
G1 F1547 X113.555 Y113.849 E22.60702
G0 F10500 X112.99 Y113.849
G1 F1547 X113.849 Y112.99 E22.64742
G0 F10500 X113.849 Y112.425
G1 F1547 X112.424 Y113.849 E22.71443
G0 F10500 X111.858 Y113.849
G1 F1547 X113.849 Y111.859 E22.80805
G0 F10500 X113.849 Y111.293
G1 F1547 X111.292 Y113.849 E22.9283
G0 F10500 X110.727 Y113.849
G1 F1547 X113.849 Y110.727 E23.07515
G0 F10500 X113.849 Y110.162
G1 F1547 X110.161 Y113.849 E23.2486
G0 F10500 X109.595 Y113.849
G1 F1547 X113.849 Y109.596 E23.44867
G0 F10500 X113.849 Y109.03
G1 F1547 X109.03 Y113.849 E23.67534
G0 F10500 X108.464 Y113.849
G1 F1547 X113.849 Y108.465 E23.92861
G0 F10500 X113.849 Y107.899
G1 F1547 X107.898 Y113.849 E24.20851
G0 F10500 X107.333 Y113.849
G1 F1547 X113.849 Y107.333 E24.515
G0 F10500 X113.849 Y106.768
G1 F1547 X106.767 Y113.849 E24.84809
G0 F10500 X106.201 Y113.849
G1 F1547 X113.849 Y106.202 E25.20781
G0 F10500 X113.336 Y106.149
G1 F1547 X106.15 Y113.335 E25.54581
G0 F10500 X106.15 Y112.77
G1 F1547 X112.77 Y106.149 E25.85722
G0 F10500 X112.205 Y106.149
G1 F1547 X106.15 Y112.204 E26.14203
G0 F10500 X106.15 Y111.638
G1 F1547 X111.639 Y106.149 E26.40022
G0 F10500 X111.073 Y106.149
G1 F1547 X106.15 Y111.073 E26.6318
G0 F10500 X106.15 Y110.507
G1 F1547 X110.508 Y106.149 E26.83679
G0 F10500 X109.942 Y106.149
G1 F1547 X106.15 Y109.941 E27.01515
G0 F10500 X106.15 Y109.375
G1 F1547 X109.376 Y106.149 E27.1669
G0 F10500 X108.811 Y106.149
G1 F1547 X106.15 Y108.81 E27.29206
G0 F10500 X106.15 Y108.244
G1 F1547 X108.245 Y106.149 E27.3906
G0 F10500 X107.679 Y106.149
G1 F1547 X106.15 Y107.678 E27.46252
G0 F10500 X106.15 Y107.113
G1 F1547 X107.113 Y106.149 E27.50784
G0 F10500 X106.548 Y106.149
G1 F1547 X106.15 Y106.547 E27.52656
G0 F10500 X105.8 Y106.547
;MESH:NONMESH
G0 F300 X105.8 Y106.547 Z0.6
G0 F10500 X105.71 Y106.547
G0 X105.782 Y114.218
G0 X114.4 Y114.4
;TIME_ELAPSED:50.653590
;LAYER:2
M106 S170
;TYPE:WALL-INNER
;MESH:?????? ?????? (2).stl
G1 F1547.2 X105.6 Y114.4 E27.81925
G1 X105.6 Y105.6 E28.11194
G1 X114.4 Y105.6 E28.40463
G1 X114.4 Y114.4 E28.69732
G0 F15000 X114.8 Y114.8
;TYPE:WALL-OUTER
G1 F1547.2 X105.2 Y114.8 E29.01662
G1 X105.2 Y105.2 E29.33591
G1 X114.8 Y105.2 E29.65521
G1 X114.8 Y114.8 E29.97451
G0 F15000 X114.53 Y114.53
G0 X114.29 Y114.01
G0 X114.01 Y114.01
;TYPE:SKIN
G1 F1547.2 X105.99 Y114.01 E30.24126
G1 X105.99 Y105.99 E30.508
G1 X114.01 Y105.99 E30.77475
G1 X114.01 Y114.01 E31.04149
G0 F15000 X114.29 Y114.01
G0 X114.29 Y106.495
G0 X113.849 Y106.495
G1 F1547.2 X113.504 Y106.15 E31.05772
G0 F15000 X112.938 Y106.15
G1 F1547.2 X113.849 Y107.061 E31.10057
G0 F15000 X113.849 Y107.627
G1 F1547.2 X112.372 Y106.15 E31.17005
G0 F15000 X111.807 Y106.15
G1 F1547.2 X113.849 Y108.192 E31.2661
G0 F15000 X113.849 Y108.758
G1 F1547.2 X111.241 Y106.15 E31.38877
G0 F15000 X110.675 Y106.15
G1 F1547.2 X113.849 Y109.324 E31.53806
G0 F15000 X113.849 Y109.89
G1 F1547.2 X110.109 Y106.15 E31.71398
G0 F15000 X109.544 Y106.15
G1 F1547.2 X113.849 Y110.455 E31.91648
G0 F15000 X113.849 Y111.021
G1 F1547.2 X108.978 Y106.15 E32.14559
G0 F15000 X108.412 Y106.15
G1 F1547.2 X113.849 Y111.587 E32.40133
G0 F15000 X113.849 Y112.152
G1 F1547.2 X107.847 Y106.15 E32.68365
G0 F15000 X107.281 Y106.15
G1 F1547.2 X113.849 Y112.718 E32.99259
G0 F15000 X113.849 Y113.284
G1 F1547.2 X106.715 Y106.15 E33.32815
G0 F15000 X106.149 Y106.149
G1 F1547.2 X113.849 Y113.849 E33.69033
G0 F15000 X113.283 Y113.849
G1 F1547.2 X106.149 Y106.715 E34.02589
G0 F15000 X106.149 Y107.28
G1 F1547.2 X112.717 Y113.849 E34.33486
G0 F15000 X112.152 Y113.849
G1 F1547.2 X106.149 Y107.846 E34.61722
G0 F15000 X106.149 Y108.412
G1 F1547.2 X111.586 Y113.849 E34.87296
G0 F15000 X111.02 Y113.849
G1 F1547.2 X106.149 Y108.977 E35.1021
G0 F15000 X106.149 Y109.543
G1 F1547.2 X110.455 Y113.849 E35.30464
G0 F15000 X109.889 Y113.849
G1 F1547.2 X106.149 Y110.109 E35.48056
G0 F15000 X106.149 Y110.674
G1 F1547.2 X109.323 Y113.849 E35.62988
G0 F15000 X108.757 Y113.849
